assets/1. 1-F/Eye in speech bubble/Color/Eye.In.Speech.Bubble-color.svg

<svg width="100%" height="100%" viewBox="0 0 32 33" fill="none" xmlns="http://www.w3.org/2000/svg">
<g clip-path="url(#clip0_7161_6142)">
<path d="M29.5987 16.5168C27.88 12.6887 23.3143 8.00122 16.1456 8.00122C8.95699 8.00122 4.39853 12.2025 2.4581 16.2668C1.9878 17.2519 2.07461 18.781 2.5831 19.6418C4.3956 23.3918 8.93006 27.6262 16.0987 27.6262C17.0595 27.6262 18.0332 27.5201 18.9084 27.3694C19.3632 27.2911 19.8337 27.3506 20.2405 27.5685C21.4063 28.1931 22.5778 28.8704 24.072 29.7085C24.5306 29.9658 24.9255 29.6819 24.8956 29.1575L24.6695 25.7414C24.6352 25.223 24.8737 24.7259 25.2893 24.414C27.3928 22.8351 28.1774 21.8072 29.3644 19.8918C29.8928 19.0409 30.0206 17.5637 29.5987 16.5168Z" fill="url(#paint0_radial_7161_6142)"/>
<path d="M29.5987 16.5168C27.88 12.6887 23.3143 8.00122 16.1456 8.00122C8.95699 8.00122 4.39853 12.2025 2.4581 16.2668C1.9878 17.2519 2.07461 18.781 2.5831 19.6418C4.3956 23.3918 8.93006 27.6262 16.0987 27.6262C17.0595 27.6262 18.0332 27.5201 18.9084 27.3694C19.3632 27.2911 19.8337 27.3506 20.2405 27.5685C21.4063 28.1931 22.5778 28.8704 24.072 29.7085C24.5306 29.9658 24.9255 29.6819 24.8956 29.1575L24.6695 25.7414C24.6352 25.223 24.8737 24.7259 25.2893 24.414C27.3928 22.8351 28.1774 21.8072 29.3644 19.8918C29.8928 19.0409 30.0206 17.5637 29.5987 16.5168Z" fill="url(#paint1_radial_7161_6142)"/>
<path d="M29.5987 16.5168C27.88 12.6887 23.3143 8.00122 16.1456 8.00122C8.95699 8.00122 4.39853 12.2025 2.4581 16.2668C1.9878 17.2519 2.07461 18.781 2.5831 19.6418C4.3956 23.3918 8.93006 27.6262 16.0987 27.6262C17.0595 27.6262 18.0332 27.5201 18.9084 27.3694C19.3632 27.2911 19.8337 27.3506 20.2405 27.5685C21.4063 28.1931 22.5778 28.8704 24.072 29.7085C24.5306 29.9658 24.9255 29.6819 24.8956 29.1575L24.6695 25.7414C24.6352 25.223 24.8737 24.7259 25.2893 24.414C27.3928 22.8351 28.1774 21.8072 29.3644 19.8918C29.8928 19.0409 30.0206 17.5637 29.5987 16.5168Z" fill="url(#paint2_radial_7161_6142)"/>
<circle cx="16" cy="17.7981" r="6.64062" fill="url(#paint3_linear_7161_6142)"/>
<g filter="url(#filter0_f_7161_6142)">
<circle cx="15.3125" cy="18.9031" r="3.83061" fill="#C9C5CC"/>
</g>
<circle cx="16" cy="17.7981" r="3.83061" fill="url(#paint4_radial_7161_6142)"/>
<circle cx="16" cy="17.7981" r="3.83061" fill="url(#paint5_radial_7161_6142)" fill-opacity="0.4"/>
<g filter="url(#filter1_f_7161_6142)">
<ellipse cx="23.8168" cy="16.7043" rx="5.29624" ry="3.48438" fill="url(#paint6_radial_7161_6142)"/>
</g>
<g filter="url(#filter2_f_7161_6142)">
<path d="M22.6768 26.4387L24.4268 29.0168L24.1768 24.9387L22.6768 26.4387Z" fill="url(#paint7_linear_7161_6142)"/>
</g>
<g filter="url(#filter3_f_7161_6142)">
<path d="M20.4249 27.1262C20.8832 26.9114 22.3069 26.1981 24.3351 25.0637" stroke="url(#paint8_linear_7161_6142)" stroke-width="0.25" stroke-linecap="round"/>
</g>
<g filter="url(#filter4_f_7161_6142)">
<path d="M8.05185 25.1262C12.0518 27.6887 18.0143 27.6869 20.6143 26.5869" stroke="url(#paint9_linear_7161_6142)" stroke-width="0.2"/>
</g>
<g filter="url(#filter5_f_7161_6142)">
<path d="M24.9737 24.2668C24.8487 24.4075 24.3956 24.8059 23.9737 25.0637" stroke="#9D86A5" stroke-opacity="0.5" stroke-width="0.2"/>
</g>
</g>
<defs>
<filter id="filter0_f_7161_6142" x="10.4819" y="14.0725" width="9.66122" height="9.66113" filterUnits="userSpaceOnUse" color-interpolation-filters="sRGB">
<feFlood flood-opacity="0" result="BackgroundImageFix"/>
<feBlend mode="normal" in="SourceGraphic" in2="BackgroundImageFix" result="shape"/>
<feGaussianBlur stdDeviation="0.5" result="effect1_foregroundBlur_7161_6142"/>
</filter>
<filter id="filter1_f_7161_6142" x="15.5206" y="10.22" width="16.5925" height="12.9688" filterUnits="userSpaceOnUse" color-interpolation-filters="sRGB">
<feFlood flood-opacity="0" result="BackgroundImageFix"/>
<feBlend mode="normal" in="SourceGraphic" in2="BackgroundImageFix" result="shape"/>
<feGaussianBlur stdDeviation="1.5" result="effect1_foregroundBlur_7161_6142"/>
</filter>
<filter id="filter2_f_7161_6142" x="21.6768" y="23.9387" width="3.75" height="6.07812" filterUnits="userSpaceOnUse" color-interpolation-filters="sRGB">
<feFlood flood-opacity="0" result="BackgroundImageFix"/>
<feBlend mode="normal" in="SourceGraphic" in2="BackgroundImageFix" result="shape"/>
<feGaussianBlur stdDeviation="0.5" result="effect1_foregroundBlur_7161_6142"/>
</filter>
<filter id="filter3_f_7161_6142" x="19.7999" y="24.4387" width="5.16021" height="3.3125" filterUnits="userSpaceOnUse" color-interpolation-filters="sRGB">
<feFlood flood-opacity="0" result="BackgroundImageFix"/>
<feBlend mode="normal" in="SourceGraphic" in2="BackgroundImageFix" result="shape"/>
<feGaussianBlur stdDeviation="0.25" result="effect1_foregroundBlur_7161_6142"/>
</filter>
<filter id="filter4_f_7161_6142" x="7.49791" y="24.542" width="13.6554" height="3.34399" filterUnits="userSpaceOnUse" color-interpolation-filters="sRGB">
<feFlood flood-opacity="0" result="BackgroundImageFix"/>
<feBlend mode="normal" in="SourceGraphic" in2="BackgroundImageFix" result="shape"/>
<feGaussianBlur stdDeviation="0.25" result="effect1_foregroundBlur_7161_6142"/>
</filter>
<filter id="filter5_f_7161_6142" x="23.4216" y="23.7004" width="2.12688" height="1.94873" filterUnits="userSpaceOnUse" color-interpolation-filters="sRGB">
<feFlood flood-opacity="0" result="BackgroundImageFix"/>
<feBlend mode="normal" in="SourceGraphic" in2="BackgroundImageFix" result="shape"/>
<feGaussianBlur stdDeviation="0.25" result="effect1_foregroundBlur_7161_6142"/>
</filter>
<radialGradient id="paint0_radial_7161_6142" cx="0" cy="0" r="1" gradientUnits="userSpaceOnUse" gradientTransform="translate(9.1456 9.75122) rotate(56.8886) scale(17.1619 32.1981)">
<stop stop-color="#3B3444"/>
<stop offset="1" stop-color="#573561"/>
</radialGradient>
<radialGradient id="paint1_radial_7161_6142" cx="0" cy="0" r="1" gradientUnits="userSpaceOnUse" gradientTransform="translate(31.8956 20.6887) rotate(180) scale(8.6875 14.6875)">
<stop stop-color="#3B3444"/>
<stop offset="1" stop-color="#3D3446" stop-opacity="0"/>
</radialGradient>
<radialGradient id="paint2_radial_7161_6142" cx="0" cy="0" r="1" gradientUnits="userSpaceOnUse" gradientTransform="translate(16 22.3137) rotate(-90) scale(15.375 16.4794)">
<stop offset="0.886179" stop-color="#72667B" stop-opacity="0"/>
<stop offset="1" stop-color="#72667B"/>
</radialGradient>
<linearGradient id="paint3_linear_7161_6142" x1="11.2081" y1="11.8137" x2="18.0206" y2="25.0637" gradientUnits="userSpaceOnUse">
<stop stop-color="#DCDBDF"/>
<stop offset="1" stop-color="#D4D0D7"/>
</linearGradient>
<radialGradient id="paint4_radial_7161_6142" cx="0" cy="0" r="1" gradientUnits="userSpaceOnUse" gradientTransform="translate(12.5206 13.9675) rotate(58.8583) scale(8.21803 14.0051)">
<stop stop-color="#3B3444"/>
<stop offset="1" stop-color="#573561"/>
</radialGradient>
<radialGradient id="paint5_radial_7161_6142" cx="0" cy="0" r="1" gradientUnits="userSpaceOnUse" gradientTransform="translate(21.7706 12.9388) rotate(136.052) scale(8.01506 5.71056)">
<stop stop-color="#DAD8DD"/>
<stop offset="1" stop-color="#DAD8DD" stop-opacity="0"/>
</radialGradient>
<radialGradient id="paint6_radial_7161_6142" cx="0" cy="0" r="1" gradientUnits="userSpaceOnUse" gradientTransform="translate(24.3147 15.7375) rotate(180) scale(6.79584 3.20501)">
<stop stop-color="#DAD8DD" stop-opacity="0.5"/>
<stop offset="1" stop-color="#DAD8DD" stop-opacity="0"/>
</radialGradient>
<linearGradient id="paint7_linear_7161_6142" x1="23.3331" y1="26.0325" x2="24.6143" y2="30.22" gradientUnits="userSpaceOnUse">
<stop stop-color="#6D5B76"/>
<stop offset="1" stop-color="#6D5B76" stop-opacity="0"/>
</linearGradient>
<linearGradient id="paint8_linear_7161_6142" x1="24.5499" y1="25.5364" x2="20.8546" y2="27.8567" gradientUnits="userSpaceOnUse">
<stop stop-color="#312343" stop-opacity="0"/>
<stop offset="0.291667" stop-color="#312343"/>
<stop offset="0.739583" stop-color="#312343"/>
<stop offset="1" stop-color="#312343" stop-opacity="0"/>
</linearGradient>
<linearGradient id="paint9_linear_7161_6142" x1="19.5987" y1="27.2356" x2="11.1768" y2="27.6418" gradientUnits="userSpaceOnUse">
<stop stop-color="#865994"/>
<stop offset="1" stop-color="#865994" stop-opacity="0"/>
</linearGradient>
<clipPath id="clip0_7161_6142">
<rect width="32" height="32" fill="white" transform="translate(0 0.0012207)"/>
</clipPath>
</defs>
</svg>

<svg width="100%" height="100%" viewBox="0 0 32 33" xmlns="http://www.w3.org/2000/svg"><g clip-path="url(#a)"><path fill="url(#b)" d="M29.599 16.517C27.88 12.689 23.314 8 16.146 8c-7.189 0-11.747 4.202-13.688 8.266-.47.985-.383 2.514.125 3.375 1.813 3.75 6.347 7.984 13.516 7.984.96 0 1.934-.106 2.81-.257a2.07 2.07 0 0 1 1.332.2c1.165.624 2.337 1.301 3.831 2.14.459.257.854-.027.824-.552l-.227-3.416a1.54 1.54 0 0 1 .62-1.327c2.104-1.579 2.888-2.607 4.075-4.522.529-.851.657-2.328.235-3.375"/><path fill="url(#c)" d="M29.599 16.517C27.88 12.689 23.314 8 16.146 8c-7.189 0-11.747 4.202-13.688 8.266-.47.985-.383 2.514.125 3.375 1.813 3.75 6.347 7.984 13.516 7.984.96 0 1.934-.106 2.81-.257a2.07 2.07 0 0 1 1.332.2c1.165.624 2.337 1.301 3.831 2.14.459.257.854-.027.824-.552l-.227-3.416a1.54 1.54 0 0 1 .62-1.327c2.104-1.579 2.888-2.607 4.075-4.522.529-.851.657-2.328.235-3.375"/><path fill="url(#d)" d="M29.599 16.517C27.88 12.689 23.314 8 16.146 8c-7.189 0-11.747 4.202-13.688 8.266-.47.985-.383 2.514.125 3.375 1.813 3.75 6.347 7.984 13.516 7.984.96 0 1.934-.106 2.81-.257a2.07 2.07 0 0 1 1.332.2c1.165.624 2.337 1.301 3.831 2.14.459.257.854-.027.824-.552l-.227-3.416a1.54 1.54 0 0 1 .62-1.327c2.104-1.579 2.888-2.607 4.075-4.522.529-.851.657-2.328.235-3.375"/><circle cx="16" cy="17.798" r="6.641" fill="url(#e)"/><g filter="url(#f)"><circle cx="15.313" cy="18.903" r="3.831" fill="#C9C5CC"/></g><circle cx="16" cy="17.798" r="3.831" fill="url(#g)"/><circle cx="16" cy="17.798" r="3.831" fill="url(#h)" fill-opacity=".4"/><g filter="url(#i)"><ellipse cx="23.817" cy="16.704" fill="url(#j)" rx="5.296" ry="3.484"/></g><g filter="url(#k)"><path fill="url(#l)" d="m22.677 26.439 1.75 2.578-.25-4.078z"/></g><g filter="url(#m)"><path stroke="url(#n)" stroke-linecap="round" stroke-width=".25" d="M20.425 27.126c.458-.215 1.882-.928 3.91-2.062"/></g><g filter="url(#o)"><path stroke="url(#p)" stroke-width=".2" d="M8.052 25.126c4 2.563 9.962 2.56 12.562 1.46"/></g><g filter="url(#q)"><path stroke="#9D86A5" stroke-opacity=".5" stroke-width=".2" d="M24.974 24.267c-.125.14-.578.539-1 .797"/></g></g><defs><radialGradient id="b" cx="0" cy="0" r="1" gradientTransform="matrix(9.375 14.37498 -26.96945 17.58881 9.146 9.751)" gradientUnits="userSpaceOnUse"><stop stop-color="#3B3444"/><stop offset="1" stop-color="#573561"/></radialGradient><radialGradient id="c" cx="0" cy="0" r="1" gradientTransform="matrix(-8.6875 0 0 -14.6875 31.896 20.689)" gradientUnits="userSpaceOnUse"><stop stop-color="#3B3444"/><stop offset="1" stop-color="#3D3446" stop-opacity="0"/></radialGradient><radialGradient id="d" cx="0" cy="0" r="1" gradientTransform="matrix(0 -15.375 16.4794 0 16 22.314)" gradientUnits="userSpaceOnUse"><stop offset=".886" stop-color="#72667B" stop-opacity="0"/><stop offset="1" stop-color="#72667B"/></radialGradient><radialGradient id="g" cx="0" cy="0" r="1" gradientTransform="matrix(4.25 7.03374 -11.98684 7.24283 12.52 13.967)" gradientUnits="userSpaceOnUse"><stop stop-color="#3B3444"/><stop offset="1" stop-color="#573561"/></radialGradient><radialGradient id="h" cx="0" cy="0" r="1" gradientTransform="rotate(136.052 8.275 10.862)scale(8.01506 5.71056)" gradientUnits="userSpaceOnUse"><stop stop-color="#DAD8DD"/><stop offset="1" stop-color="#DAD8DD" stop-opacity="0"/></radialGradient><radialGradient id="j" cx="0" cy="0" r="1" gradientTransform="matrix(-6.79584 0 0 -3.20501 24.315 15.738)" gradientUnits="userSpaceOnUse"><stop stop-color="#DAD8DD" stop-opacity=".5"/><stop offset="1" stop-color="#DAD8DD" stop-opacity="0"/></radialGradient><filter id="f" width="9.661" height="9.661" x="10.482" y="14.072" color-interpolation-filters="sRGB" filterUnits="userSpaceOnUse"><feFlood flood-opacity="0" result="BackgroundImageFix"/><feBlend in="SourceGraphic" in2="BackgroundImageFix" result="shape"/><feGaussianBlur result="effect1_foregroundBlur_7161_6142" stdDeviation=".5"/></filter><filter id="i" width="16.593" height="12.969" x="15.521" y="10.22" color-interpolation-filters="sRGB" filterUnits="userSpaceOnUse"><feFlood flood-opacity="0" result="BackgroundImageFix"/><feBlend in="SourceGraphic" in2="BackgroundImageFix" result="shape"/><feGaussianBlur result="effect1_foregroundBlur_7161_6142" stdDeviation="1.5"/></filter><filter id="k" width="3.75" height="6.078" x="21.677" y="23.939" color-interpolation-filters="sRGB" filterUnits="userSpaceOnUse"><feFlood flood-opacity="0" result="BackgroundImageFix"/><feBlend in="SourceGraphic" in2="BackgroundImageFix" result="shape"/><feGaussianBlur result="effect1_foregroundBlur_7161_6142" stdDeviation=".5"/></filter><filter id="m" width="5.16" height="3.313" x="19.8" y="24.439" color-interpolation-filters="sRGB" filterUnits="userSpaceOnUse"><feFlood flood-opacity="0" result="BackgroundImageFix"/><feBlend in="SourceGraphic" in2="BackgroundImageFix" result="shape"/><feGaussianBlur result="effect1_foregroundBlur_7161_6142" stdDeviation=".25"/></filter><filter id="o" width="13.655" height="3.344" x="7.498" y="24.542" color-interpolation-filters="sRGB" filterUnits="userSpaceOnUse"><feFlood flood-opacity="0" result="BackgroundImageFix"/><feBlend in="SourceGraphic" in2="BackgroundImageFix" result="shape"/><feGaussianBlur result="effect1_foregroundBlur_7161_6142" stdDeviation=".25"/></filter><filter id="q" width="2.127" height="1.949" x="23.422" y="23.7" color-interpolation-filters="sRGB" filterUnits="userSpaceOnUse"><feFlood flood-opacity="0" result="BackgroundImageFix"/><feBlend in="SourceGraphic" in2="BackgroundImageFix" result="shape"/><feGaussianBlur result="effect1_foregroundBlur_7161_6142" stdDeviation=".25"/></filter><linearGradient id="e" x1="11.208" x2="18.021" y1="11.814" y2="25.064" gradientUnits="userSpaceOnUse"><stop stop-color="#DCDBDF"/><stop offset="1" stop-color="#D4D0D7"/></linearGradient><linearGradient id="l" x1="23.333" x2="24.614" y1="26.032" y2="30.22" gradientUnits="userSpaceOnUse"><stop stop-color="#6D5B76"/><stop offset="1" stop-color="#6D5B76" stop-opacity="0"/></linearGradient><linearGradient id="n" x1="24.55" x2="20.855" y1="25.536" y2="27.857" gradientUnits="userSpaceOnUse"><stop stop-color="#312343" stop-opacity="0"/><stop offset=".292" stop-color="#312343"/><stop offset=".74" stop-color="#312343"/><stop offset="1" stop-color="#312343" stop-opacity="0"/></linearGradient><linearGradient id="p" x1="19.599" x2="11.177" y1="27.236" y2="27.642" gradientUnits="userSpaceOnUse"><stop stop-color="#865994"/><stop offset="1" stop-color="#865994" stop-opacity="0"/></linearGradient><clipPath id="a"><path fill="#fff" d="M0 .001h32v32H0z"/></clipPath></defs></svg>
